X: 5598
T: Butcher's Fancy, The
R: jig
M: 6/8
K: Gmajor
ded BAB|dBA A2 B|ded BAB|dBG GAB|
ded ~B3|dBA A2 g|f/g/af gfe|1 dBG GAB:|dBG GBd||
eAA fed|eAA ABd|eAA gfe|dBG GBd|
eAA fed|eAA A2 g|f/g/af gfe|1 dBG GBd:|2 dBG GAB||

